icon-themes/sifr_svg/cmd/lc_insertrowsafter.svg

<svg viewBox="0 0 24 24" xmlns="http://www.w3.org/2000/svg"><g fill="#555753"><path d="m2 2v10l2 2.611328v-6.611328h16v8h-15v1h3v3h-4v-1.650391l-2 2.650391v1h20v-20zm2 2h4v3h-4zm5 0h6v3h-6zm7 0h4v3h-4zm-5 5v2h-2v2h2v2h2v-2h2v-2h-2v-2zm-10 5v5h1l2-2v-1l-2-2zm8 3h6v3h-6zm7 0h4v3h-4z"/><path d="m4 8v6.611328l1 1.388672h3 2v-2h-2v-4h2v-2h-2zm10 0v2h2v4h-2v2h2 4v-8h-4z" opacity=".35"/></g></svg>

<svg xmlns="http://www.w3.org/2000/svg" viewBox="0 0 24 24">
  <path
     style="fill:#555753"
     d="M 2 2 L 2 12 L 4 14.611328 L 4 8 L 20 8 L 20 16 L 5 16 L 5 17 L 8 17 L 8 20 L 4 20 L 4 18.349609 L 2 21 L 2 22 L 22 22 L 22 2 L 2 2 z M 4 4 L 8 4 L 8 7 L 4 7 L 4 4 z M 9 4 L 15 4 L 15 7 L 9 7 L 9 4 z M 16 4 L 20 4 L 20 7 L 16 7 L 16 4 z M 11 9 L 11 11 L 9 11 L 9 13 L 11 13 L 11 15 L 13 15 L 13 13 L 15 13 L 15 11 L 13 11 L 13 9 L 11 9 z M 1 14 L 1 19 L 2 19 L 4 17 L 4 16 L 2 14 L 1 14 z M 9 17 L 15 17 L 15 20 L 9 20 L 9 17 z M 16 17 L 20 17 L 20 20 L 16 20 L 16 17 z "
     />
  <path
     style="fill:#555753;opacity:0.35"
     d="M 4 8 L 4 14.611328 L 5 16 L 8 16 L 10 16 L 10 14 L 8 14 L 8 10 L 10 10 L 10 8 L 8 8 L 4 8 z M 14 8 L 14 10 L 16 10 L 16 14 L 14 14 L 14 16 L 16 16 L 20 16 L 20 8 L 16 8 L 14 8 z "
     />
</svg>
